src/status/symbolic/nm-vpn-active-lock-symbolic.svg

<svg width="16" height="16" version="1.1" xmlns="http://www.w3.org/2000/svg">
 <path d="m7.998 0c-0.27102 0-0.54135 0.061232-0.81445 0.15625-0.012459 0.004312-0.024831 0.0088709-0.037109 0.013672-1.1343 0.44698-3.7671 1.3187-5.1914 1.8867-0.00785 0.00316-0.015666 0.0064057-0.023438 0.0097656-0.22994 0.098558-0.55638 0.30917-0.73828 0.63867-0.1819 0.3295-0.18925 0.61851-0.18945 0.84766l-0.0039062 5.3418c-0.001241 1.4947 0.47433 2.739 1.4727 3.709 0.99665 0.96839 2.3954 1.7697 4.4707 3.0352 0.00124 7.68e-4 0.0026662 0.001153 0.0039062 0.001953 0.00166 1e-3 0.0022363 7.97e-4 0.0039063 0.001953 0.31446 0.19425 0.67722 0.35421 1.0391 0.35547l0.0019531 0.001953h0.0019531l0.0019532-0.001953c0.35749-0.0013 0.73689-0.16346 1.0527-0.35938h0.0019531c0.017595-0.010639 0.031329-0.018723 0.048828-0.029297-0.063274-0.19283-0.099609-0.39753-0.099609-0.60938v-0.5c-0.16345 0.098712-0.30344 0.18438-0.47656 0.28906-0.2641 0.16398-0.39277 0.21051-0.5293 0.21094-0.12747-4.44e-4 -0.25937-0.046998-0.52344-0.21094-4.1723-2.5445-5.4729-3.2311-5.4707-5.8945l0.0039062-5.3418c2.852e-4 -0.32951 0.064113-0.45658 0.32031-0.56641 1.3542-0.54003 3.9817-1.4088 5.1895-1.8848 0.21044-0.073221 0.35628-0.10156 0.48438-0.10156 0.13725 0 0.28371 0.028347 0.49414 0.10156 1.2077 0.47595 3.8144 1.3997 5.1777 1.8848 0.26536 0.10068 0.33035 0.2369 0.33008 0.56641l-0.003906 5.3418c-9e-5 0.10494-0.007408 0.20162-0.011719 0.30078 0.35818 0.14913 0.67352 0.37598 0.9375 0.66016 0.048119-0.30717 0.073955-0.62682 0.074219-0.95898l0.003906-5.3418c1.93e-4 -0.22992-0.003796-0.52168-0.19141-0.85742-0.18756-0.33575-0.53463-0.55217-0.7832-0.64648-0.0065-0.0020199-0.013002-0.0039693-0.019532-0.0058593-1.3647-0.48562-3.9846-1.4171-5.1465-1.875-0.012925-0.004826-0.025948-0.0093849-0.039062-0.013672-0.27311-0.09503-0.55163-0.15625-0.82227-0.15625zm3.4082 13c-0.13042 0.087758-0.26424 0.17794-0.40625 0.26953v1.1875c0.83305-0.51604 1.5209-0.97426 2.0918-1.457h-1.0918-0.59375z" fill="#363636"/>
 <path d="m6.5 5a2.5 2.5 0 0 0-2.5 2.5 2.5 2.5 0 0 0 2.5 2.5 2.5 2.5 0 0 0 2.4434-2h2.0566v0.5c0 0.277 0.223 0.5 0.5 0.5s0.5-0.223 0.5-0.5v-0.5h0.5c0.277 0 0.5-0.223 0.5-0.5s-0.223-0.5-0.5-0.5h-3.5508a2.5 2.5 0 0 0-2.4492-2zm0 1a1.5 1.5 0 0 1 1.5 1.5 1.5 1.5 0 0 1-1.5 1.5 1.5 1.5 0 0 1-1.5-1.5 1.5 1.5 0 0 1 1.5-1.5z" fill="#363636"/>
 <path d="m13 10c-1.108 0-2 0.892-2 2-0.554 0-1 0.446-1 1v2c0 0.554 0.446 1 1 1h4c0.554 0 1-0.446 1-1v-2c0-0.554-0.446-1-1-1 0-1.108-0.892-2-2-2zm0 1c0.554 0 1 0.446 1 1h-2c0-0.554 0.446-1 1-1z" color="#000000" fill="#363636" fill-rule="evenodd" stroke-width="2" style="-inkscape-stroke:none"/>
</svg>

<svg xmlns="http://www.w3.org/2000/svg" width="16" height="16">
    <path fill="#050505" fill-opacity=".7" d="M7.998 0a2.484 2.484 0 0 0-.852.17C6.012.617 3.38 1.489 1.955 2.057a1.002 1.002 0 0 0-.023.01c-.23.098-.557.309-.739.638-.182.33-.189.619-.19.848L1 8.895c-.001 1.494.474 2.739 1.473 3.709.996.968 2.395 1.77 4.47 3.035.002 0 .003 0 .004.002.002 0 .003 0 .004.002.315.194.677.354 1.04.355l.001.002h.002l.002-.002c.358-.001.737-.163 1.053-.36h.002l.049-.029A1.952 1.952 0 0 1 9 15v-.5l-.477.29c-.264.163-.392.21-.529.21-.127 0-.26-.047-.523-.21C3.298 12.244 1.998 11.557 2 8.894l.004-5.342c0-.33.064-.457.32-.567 1.354-.54 3.982-1.408 5.19-1.884A1.47 1.47 0 0 1 7.998 1c.137 0 .284.028.494.102 1.208.476 3.815 1.4 5.178 1.884.265.101.33.237.33.567l-.004 5.342c0 .105-.007.201-.012.3.359.15.674.376.938.66a6.22 6.22 0 0 0 .074-.958L15 3.555c0-.23-.004-.522-.191-.858-.188-.335-.535-.552-.784-.646a1.042 1.042 0 0 0-.02-.006C12.642 1.559 10.022.628 8.86.17A2.53 2.53 0 0 0 7.998 0zm3.408 13c-.13.088-.264.178-.406.27v1.187c.833-.516 1.52-.974 2.092-1.457h-1.686z"/>
    <path fill="#050505" fill-opacity=".7" d="M6.5 5A2.5 2.5 0 0 0 4 7.5 2.5 2.5 0 0 0 6.5 10a2.5 2.5 0 0 0 2.443-2H11v.5a.499.499 0 1 0 1 0V8h.5a.499.499 0 1 0 0-1H8.95A2.5 2.5 0 0 0 6.5 5zm0 1A1.5 1.5 0 0 1 8 7.5 1.5 1.5 0 0 1 6.5 9 1.5 1.5 0 0 1 5 7.5 1.5 1.5 0 0 1 6.5 6z"/>
    <path fill="#050505" fill-opacity=".7" fill-rule="evenodd" d="M13 10c-1.108 0-2 .892-2 2-.554 0-1 .446-1 1v2c0 .554.446 1 1 1h4c.554 0 1-.446 1-1v-2c0-.554-.446-1-1-1 0-1.108-.892-2-2-2zm0 1c.554 0 1 .446 1 1h-2c0-.554.446-1 1-1z" color="#000" style="-inkscape-stroke:none"/>
</svg>
